X: 21735
T: King Of Meenasillagh, The
R: reel
M: 4/4
K: Dmajor
|:dBAG|FGEF D2 EF|GEFD EDEG|FGEF D3 g|fdec:|
dBAg|fddc dfaf|eAA/B/A cdeg|fddc dfaf|eABc dcde|
fddc dfaf|eAA/B/A cdeg|fdfa gfed|cABc||

